X:16
T:The Duke of Leinster (2 Versions)
R:reel
M:C|
L:1/8
Z:Julie Ross
D:The Duke of Leinster: Micheal O'Raghallaigh, The Nervous Man
S:Micheal O'Raghallaigh, The Nervous Man
S:Martin Mulvihill
K:G
"The Duke of Leinter (close to Mulvihill version)"
D |: G2BG DGBc | d2eB dBAB | G2BG DGBc | dBAB GEDE |
G2BG DGBc | d2eB  dBAB | GABd edge | dBAB GED2 :||
|: dega b~g3 | agbg ageg | dega bage | dBAB GED2 |
dega b~g3 | agbg agef | g2fg efge |1 dBAB GED2 :|2 dBAB GEDE ||
K:G
"The Duke of Leinter (Micheal O'Raghallaigh version)"
G2BG DGBc | dgeB dBAB | GABG DGBc | dBAB GEDE |
G3B DGBc | dgeB  dBAB |1 G~B3 dGBc | dBAB GEDE :|2 GABd ecge | dBAB GABc ||
|: dega b2gb | a2ab agef | g3a bage | dBAB GABc |
dega b2gb | a2ab agef | g2fg efge |1 dBAB GABc :|2 dBAB GEDE ||
